-----BEGIN PGP PUBLIC KEY BLOCK-----

xjMEaUFEcxYJKwYBBAHaRw8BAQdAUL3sKZcgycQGSlnY7ysh6vB230QnF+b/
6OQnwZrXDczNJWFkZW55cnJAcHJvdG9uLm1lIDxhZGVueXJyQHByb3Rvbi5t
ZT7CwBEEExYKAIMFgmlBRHMDCwkHCRAa+AWlzLMC2kUUAAAAAAAcACBzYWx0
QG5vdGF0aW9ucy5vcGVucGdwanMub3JnKFM9TiugrvChG5ZkTTRqgacj6Poj
GOsgZi2Fh5T69SoDFQoIBBYAAgECGQECmwMCHgEWIQReuc8DhLFSrw7vEMUa
+AWlzLMC2gAA3q0BAMaEeE1Ubg0pt1LoI9tye+XjORV4DPPAJeyBVOFh4ZQc
AQCyQrtZVFjjAPJscOBEDABD4jUfBC/MlUCsD7Zk7MyFBc44BGlBRHMSCisG
AQQBl1UBBQEBB0BmVwUXpmRFFcpY9cXx0N2R+MA5MpexKf4OfgrLFSwkPgMB
CAfCvgQYFgoAcAWCaUFEcwkQGvgFpcyzAtpFFAAAAAAAHAAgc2FsdEBub3Rh
dGlvbnMub3BlbnBncGpzLm9yZz3NLEwcC5x5GKhhJsDEjQJ+ADf7zIja8mAa
yEPTH5ZsApsMFiEEXrnPA4SxUq8O7xDFGvgFpcyzAtoAADW1AP0aOOb8mFXr
x2LswPTRztIrNJPRzF7kftjxTgGKIs9ZKQEAg+ZbkbTSk6HHsFlUG5jEwwmb
35TeWrcX9Nenw+QPPA8=
=kmzr
-----END PGP PUBLIC KEY BLOCK-----
